X: 14774
T: Gan Ainm
R: jig
M: 6/8
K: Dmajor
|:DFA def|gfe fed|ecA GG/2G/2G|FED EFG|
A^GA DFA|def g/g/ge|fed ecA|1 gec d2 A:|2 gec dfg||
|:aba f/a/fd|Adf agf|gfe fed|ecA G/G/GE|
DFA def|gfe fed|ecA gec|1 edc dfg:|2 edc d2 z||

